!!!OTL: No_4_Song_of_Nu'šina.krn
!!!REG: Southwest
!!!LANG: Non-Tone
!!!LING_GROUP: Uto-Aztecan
!!!SOCIAL_FUNCTION: songs of the bear dance
**kern
*staff1
=1-
*clefF4
*k[f#c#]
*M3/4
8d\L
8d\J
8A\L
8A\J
4d\
=2
8d\L
8d\J
8d\L
8d\J
8d\L
8d\J
=3
8d\L
8d\J
8A\L
8d\J
4F#\
=4||
*M2/4
8D\L
8D\J
8D\L
8D\J
=5
8D\L
8D\J
8D\L
8D;\J
=6
=
*M3/4
8F#\L
8F#\J
8D\L
8D\J
4F#\
=7
8F#\L
8F#\J
8F#\L
8F#\J
8F#\L
8F#\J
=8
8F#\L
8F#\J
8D\L
8D\J
4D\
=9
8D\L
8D\J
8D\L
8D\J
4D\
=10
8F#\L
8F#\J
8D\L
8D\J
4F#\
=11
8F#\L
8F#\J
8F#\L
8F#\J
8F#\L
8F#\J
=12
8F#\L
8F#\J
8D\L
8D\J
4D\
=13
8D\L
8D\J
8D\L
8D\J
4D\
=14
8E\L
8E\J
8D\L
8D\J
4E\
=15
8E\L
8E\J
8E\L
8E\J
8E\L
8E\J
=16
8E\L
8D\J
8D\L
8D\J
4D\
=17
8D\L
8D\J
8D\L
8D\J
4D\
=18
8E\L
8E\J
8D\L
8D\J
4D\
=19
8D\L
8D\J
8D\L
8D\J
8D\L
8D\J
=20
8D\L
8D\J
8C#/L
8C#/J
4D\
=21
8D\L
8D\J
8D\L
8D\J
4D\
=22
8D\L
8D\J
8C#/L
8C#/J
4D\
=23
8D\L
8D\J
8D\L
8D\J
4D\
=24
*M2/4
2D\
==:|!
*-
